;FLAVOR:Marlin
;TIME:4100
;Filament used: 3.17182m
;Layer height: 0.2
;MINX:67.214
;MINY:93.147
;MINZ:0.2
;MAXX:133.486
;MAXY:141.865
;MAXZ:19
;Generated with Cura_SteamEngine 5.4.0
M140 S60
M105
M190 S60
M104 S210
M105
M109 S210
M82 ;absolute extrusion mode
; Ender 3 Custom Start G-code
G92 E0 ; Reset Extruder
G28 ; Home all axes
G1 Z2.0 F3000 ; Move Z Axis up little to prevent scratching of Heat Bed
G1 X0.1 Y20 Z0.3 F5000.0 ; Move to start position
G1 X0.1 Y200.0 Z0.3 F1500.0 E15 ; Draw the first line
G1 X0.4 Y200.0 Z0.3 F5000.0 ; Move to side a little
G1 X0.4 Y20 Z0.3 F1500.0 E30 ; Draw the second line
G92 E0 ; Reset Extruder
G1 Z2.0 F3000 ; Move Z Axis up little to prevent scratching of Heat Bed
G1 X5 Y20 Z0.3 F5000.0 ; Move over to prevent blob squish
G92 E0
G92 E0
G1 F2700 E-5
;LAYER_COUNT:95
;LAYER:0
M107
;MESH:Driver_Case_Top.stl
G0 F6000 X95.506 Y139.165 Z0.2
;TYPE:WALL-INNER
G1 F2700 E0
G1 F1200 X95.93 Y138.983 E0.01535
G1 X96.257 Y138.786 E0.02804
G1 X96.544 Y138.554 E0.04032
G1 X96.81 Y138.27 E0.05326
G1 X97.02 Y137.97 E0.06544
G1 X97.191 Y137.642 E0.07774
G1 X97.318 Y137.291 E0.09016
G1 X97.393 Y136.925 E0.10258
G1 X97.421 Y136.521 E0.11605
G1 X97.421 Y98.511 E1.38027
G1 X97.408 Y98.124 E1.39315
G1 X97.305 Y97.63 E1.40993
G1 X97.153 Y97.254 E1.42342
G1 X97.013 Y97.005 E1.43292
G1 X96.811 Y96.72 E1.44454
G1 X96.548 Y96.438 E1.45737
G1 X96.265 Y96.208 E1.4695
G1 X95.935 Y96.007 E1.48235
G1 X95.507 Y95.822 E1.49786
G1 X94.979 Y95.718 E1.51576
G1 X71.76 Y95.717 E2.28802
G1 X71.356 Y95.741 E2.30148
G1 X70.991 Y95.815 E2.31387
G1 X70.693 Y95.914 E2.32431
G1 X70.443 Y96.032 E2.33351
G1 X70.14 Y96.218 E2.34533
G1 X69.834 Y96.468 E2.35848
G1 X69.584 Y96.74 E2.37076
G1 X69.374 Y97.038 E2.38289
G1 X69.155 Y97.467 E2.39891
G1 X69.011 Y98.009 E2.41756
G1 X68.982 Y98.379 E2.42991
G1 X68.979 Y136.471 E3.69685
G1 X69.013 Y136.864 E3.70997
G1 X69.109 Y137.282 E3.72424
G1 X69.256 Y137.656 E3.7376
G1 X69.525 Y138.107 E3.75507
G1 X69.884 Y138.479 E3.77226
G1 X70.169 Y138.704 E3.78434
G1 X70.506 Y138.902 E3.79734
G1 X70.944 Y139.081 E3.81308
G1 X71.374 Y139.16 E3.82762
G1 X71.679 Y139.183 E3.83779
G1 X94.65 Y139.283 E4.60182
G1 X95.041 Y139.26 E4.61484
G1 X95.506 Y139.165 E4.63063
G0 F6000 X95.623 Y139.55
G1 F1200 X96.214 Y139.296 E4.65203
G1 X96.655 Y138.987 E4.66994
G1 X96.973 Y138.691 E4.68439
G1 X97.232 Y138.376 E4.69795
G1 X97.464 Y137.998 E4.7127
G1 X97.639 Y137.599 E4.72719
G1 X97.782 Y137.093 E4.74468
G1 X97.821 Y136.529 E4.76348
G1 X97.821 Y98.452 E6.02993
G1 X97.782 Y97.889 E6.0487
G1 X97.641 Y97.393 E6.06585
G1 X97.515 Y97.08 E6.07707
G1 X97.355 Y96.797 E6.08789
G1 X97.058 Y96.377 E6.10499
G1 X96.593 Y95.941 E6.1262
G1 X96.12 Y95.652 E6.14463
G1 X95.739 Y95.488 E6.15843
G1 X95.342 Y95.375 E6.17216
G1 X94.937 Y95.318 E6.18576
G1 X71.753 Y95.317 E6.95686
G1 X71.377 Y95.33 E6.96938
G1 X70.882 Y95.429 E6.98617
G1 X70.544 Y95.542 E6.99802
G1 X70.258 Y95.678 E7.00855
G1 X69.908 Y95.892 E7.0222
G1 X69.56 Y96.177 E7.03716
G1 X69.273 Y96.488 E7.05123
G1 X69.03 Y96.834 E7.0653
G1 X68.831 Y97.222 E7.0798
G1 X68.693 Y97.621 E7.09384
G1 X68.615 Y97.952 E7.10515
G1 X68.582 Y98.363 E7.11887
G1 X68.579 Y136.481 E8.38668
G1 X68.627 Y137.029 E8.40497
G1 X68.728 Y137.407 E8.41799
G1 X68.897 Y137.835 E8.43329
G1 X69.139 Y138.241 E8.44901
G1 X69.302 Y138.45 E8.45783
G1 X69.616 Y138.776 E8.47288
G1 X69.943 Y139.035 E8.48676
G1 X70.413 Y139.31 E8.50487
G1 X70.927 Y139.484 E8.52292
G1 X71.329 Y139.558 E8.53651
G1 X71.664 Y139.583 E8.54768
G1 X94.655 Y139.683 E9.31238
G1 X95.02 Y139.671 E9.32452
G1 X95.623 Y139.55 E9.34498
G0 F6000 X95.541 Y139.984
G1 F1200 X95.859 Y139.883 E9.35607
G1 X96.208 Y139.745 E9.36856
G1 X96.645 Y139.499 E9.38524
G1 X97.163 Y139.081 E9.40737
G1 X97.499 Y138.699 E9.4243
G1 X97.703 Y138.388 E9.43667
G1 X97.924 Y137.964 E9.45257
G1 X98.12 Y137.419 E9.47183
G1 X98.204 Y136.929 E9.48837
G1 X98.221 Y136.538 E9.50138
G1 X98.219 Y98.378 E10.77059
G1 X98.186 Y97.94 E10.7852
G1 X98.07 Y97.388 E10.80396
G1 X97.876 Y96.906 E10.82124
G1 X97.64 Y96.488 E10.83721
G1 X97.432 Y96.215 E10.84862
G1 X97.264 Y96.023 E10.85711
G1 X96.923 Y95.703 E10.87266
G1 X96.64 Y95.487 E10.8845
G1 X96.304 Y95.297 E10.89734
G1 X95.875 Y95.111 E10.91289
G1 X95.531 Y95.002 E10.9249
G1 X95.04 Y94.918 E10.94146
G1 X71.746 Y94.917 E11.71623
G1 X71.353 Y94.93 E11.7293
G1 X70.856 Y95.016 E11.74608
G1 X70.395 Y95.17 E11.76225
G1 X70.073 Y95.323 E11.7741
G1 X69.676 Y95.566 E11.78958
G1 X69.37 Y95.801 E11.80242
G1 X69.044 Y96.128 E11.81777
G1 X68.74 Y96.53 E11.83454
G1 X68.503 Y96.961 E11.8509
G1 X68.336 Y97.393 E11.8663
G1 X68.218 Y97.891 E11.88332
G1 X68.182 Y98.348 E11.89857
G1 X68.179 Y136.613 E13.17127
G1 X68.222 Y136.984 E13.18369
G1 X68.27 Y137.24 E13.19236
G1 X68.347 Y137.532 E13.2024
G1 X68.538 Y138.014 E13.21964
G1 X68.808 Y138.467 E13.23718
G1 X68.995 Y138.707 E13.2473
G1 X69.267 Y139.009 E13.26082
G1 X69.717 Y139.366 E13.27993
G1 X70.043 Y139.57 E13.29272
G1 X70.361 Y139.714 E13.30433
G1 X70.729 Y139.851 E13.31739
G1 X71.179 Y139.948 E13.3327
G1 X71.649 Y139.983 E13.34837
G1 X94.661 Y140.083 E14.11376
G1 X95.044 Y140.072 E14.12651
G1 X95.541 Y139.984 E14.14329
G0 F6000 X95.638 Y140.373
;TYPE:WALL-OUTER
G1 F1200 X95.993 Y140.26 E14.15569
G1 X96.381 Y140.107 E14.16956
G1 X96.727 Y139.912 E14.18277
G1 X96.947 Y139.769 E14.19149
G1 X97.158 Y139.61 E14.20028
G1 X97.362 Y139.433 E14.20927
G1 X97.557 Y139.239 E14.21841
G1 X97.816 Y138.945 E14.23145
G1 X98.045 Y138.596 E14.24533
G1 X98.174 Y138.368 E14.25404
G1 X98.29 Y138.125 E14.263
G1 X98.392 Y137.871 E14.2721
G1 X98.474 Y137.616 E14.28101
G1 X98.535 Y137.367 E14.28954
G1 X98.602 Y136.978 E14.30267
G1 X98.621 Y136.546 E14.31705
G1 X98.621 Y98.437 E15.58456
G1 X98.61 Y98.152 E15.59405
G1 X98.582 Y97.884 E15.60301
G1 X98.515 Y97.503 E15.61587
G1 X98.394 Y97.122 E15.62917
G1 X98.237 Y96.732 E15.64315
G1 X97.978 Y96.272 E15.66071
G1 X97.742 Y95.962 E15.67367
G1 X97.556 Y95.749 E15.68307
G1 X97.369 Y95.562 E15.69187
G1 X97.176 Y95.393 E15.7004
G1 X96.956 Y95.226 E15.70959
G1 X96.736 Y95.082 E15.71834
G1 X96.394 Y94.888 E15.73141
G1 X96.01 Y94.734 E15.74517
G1 X95.631 Y94.613 E15.75841
G1 X95.069 Y94.518 E15.77736
G1 X71.739 Y94.517 E16.55332
G1 X71.312 Y94.531 E16.56753
G1 X70.762 Y94.627 E16.5861
G1 X70.245 Y94.798 E16.60421
G1 X69.887 Y94.968 E16.61739
G1 X69.657 Y95.099 E16.6262
G1 X69.444 Y95.24 E16.63469
G1 X69.216 Y95.414 E16.64423
G1 X69.012 Y95.593 E16.65326
G1 X68.829 Y95.777 E16.66189
G1 X68.65 Y95.985 E16.67102
G1 X68.403 Y96.313 E16.68468
G1 X68.204 Y96.675 E16.69841
G1 X68.095 Y96.908 E16.70697
G1 X67.997 Y97.163 E16.71606
G1 X67.921 Y97.411 E16.72468
G1 X67.82 Y97.836 E16.73921
G1 X67.782 Y98.333 E16.75579
G1 X67.779 Y136.637 E18.02979
G1 X67.826 Y137.044 E18.04341
G1 X67.88 Y137.328 E18.05303
G1 X67.967 Y137.657 E18.06435
G1 X68.128 Y138.065 E18.07894
G1 X68.245 Y138.304 E18.08779
G1 X68.477 Y138.693 E18.10285
G1 X68.688 Y138.964 E18.11428
G1 X68.881 Y139.178 E18.12386
G1 X69.08 Y139.37 E18.13306
G1 X69.287 Y139.545 E18.14207
G1 X69.491 Y139.696 E18.15051
G1 X69.737 Y139.851 E18.16019
G1 X69.973 Y139.978 E18.1691
G1 X70.209 Y140.084 E18.1777
G1 X70.475 Y140.184 E18.18716
G1 X70.727 Y140.26 E18.19591
G1 X70.986 Y140.316 E18.20472
G1 X71.241 Y140.354 E18.2133
G1 X71.634 Y140.383 E18.22641
G1 X94.667 Y140.483 E18.99249
G1 X95.083 Y140.47 E19.00634
G1 X95.638 Y140.373 E19.02508
G0 F6000 X95.47 Y139.685
G0 X95.41 Y139.081
G0 X95.323 Y138.836
;TYPE:SKIN
G1 F1200 X94.995 Y138.903 E19.03621
G1 X94.634 Y138.922 E19.04823
G1 X71.704 Y138.823 E19.8109
G1 X71.405 Y138.8 E19.82087
G1 X71.057 Y138.736 E19.83264
G1 X70.661 Y138.576 E19.84684
G1 X70.376 Y138.409 E19.85783
G1 X70.058 Y138.157 E19.87133
G1 X69.766 Y137.808 E19.88646
G1 X69.581 Y137.495 E19.89855
G1 X69.455 Y137.177 E19.90993
G1 X69.369 Y136.8 E19.92279
G1 X69.34 Y136.474 E19.93368
G1 X69.342 Y98.404 E21.19989
G1 X69.368 Y98.057 E21.21146
G1 X69.472 Y97.675 E21.22463
G1 X69.595 Y97.383 E21.23517
G1 X69.756 Y97.113 E21.24563
G1 X70.022 Y96.78 E21.2598
G1 X70.35 Y96.512 E21.27389
G1 X70.725 Y96.284 E21.28849
G1 X71.082 Y96.162 E21.30103
G1 X71.403 Y96.099 E21.31191
G1 X71.779 Y96.078 E21.32444
G1 X94.897 Y96.079 E22.09335
G1 X95.183 Y96.121 E22.10296
G1 X95.487 Y96.205 E22.11345
G1 X95.842 Y96.36 E22.12633
G1 X96.25 Y96.648 E22.14295
G1 X96.529 Y96.945 E22.1565
G1 X96.704 Y97.193 E22.16659
G1 X96.828 Y97.415 E22.17505
G1 X96.961 Y97.738 E22.18667
G1 X97.034 Y98.088 E22.19856
G1 X97.061 Y98.48 E22.21163
G1 X97.061 Y136.499 E23.47615
G1 X97.029 Y136.96 E23.49152
G1 X96.898 Y137.426 E23.50762
G1 X96.711 Y137.783 E23.52102
G1 X96.531 Y138.041 E23.53148
G1 X96.247 Y138.343 E23.54527
G1 X95.915 Y138.578 E23.5588
G1 X95.633 Y138.724 E23.56936
G1 X95.323 Y138.836 E23.58033
G0 F6000 X95.41 Y139.081
G0 X71.166 Y139.02
G0 X71.25 Y138.567
G1 F1200 X69.601 Y136.917 E23.65791
G0 F6000 X69.539 Y136.29
G1 F1200 X71.871 Y138.622 E23.7676
G0 F6000 X72.44 Y138.625
G1 F1200 X69.539 Y135.724 E23.90406
G0 F6000 X69.539 Y135.159
G1 F1200 X73.008 Y138.627 E24.06721
G0 F6000 X73.576 Y138.63
G1 F1200 X69.539 Y134.593 E24.25709
G0 F6000 X69.539 Y134.027
G1 F1200 X74.144 Y138.632 E24.4737
G0 F6000 X74.712 Y138.635
G1 F1200 X69.539 Y133.462 E24.71702
G0 F6000 X69.539 Y132.896
G1 F1200 X75.28 Y138.637 E24.98706
G0 F6000 X75.849 Y138.64
G1 F1200 X69.539 Y132.33 E25.28386
G0 F6000 X69.539 Y131.765
G1 F1200 X76.417 Y138.642 E25.60736
G0 F6000 X76.985 Y138.645
G1 F1200 X69.539 Y131.199 E25.9576
G0 F6000 X69.539 Y130.633
G1 F1200 X77.553 Y138.647 E26.33455
G0 F6000 X78.121 Y138.65
G1 F1200 X69.539 Y130.068 E26.73822
G0 F6000 X69.539 Y129.502
G1 F1200 X78.689 Y138.652 E27.16861
G0 F6000 X79.258 Y138.655
G1 F1200 X69.539 Y128.936 E27.62576
G0 F6000 X69.539 Y128.37
G1 F1200 X79.825 Y138.657 E28.10961
G0 F6000 X80.394 Y138.66
G1 F1200 X69.539 Y127.805 E28.62019
G0 F6000 X69.539 Y127.239
G1 F1200 X80.962 Y138.662 E29.1575
G0 F6000 X81.53 Y138.664
G1 F1200 X69.539 Y126.673 E29.72152
G0 F6000 X69.539 Y126.108
G1 F1200 X82.098 Y138.667 E30.31225
G0 F6000 X82.666 Y138.669
G1 F1200 X69.539 Y125.542 E30.92971
G0 F6000 X69.539 Y124.976
G1 F1200 X83.234 Y138.672 E31.5739
G0 F6000 X83.802 Y138.674
G1 F1200 X69.539 Y124.411 E32.24479
G0 F6000 X69.539 Y123.845
G1 F1200 X84.371 Y138.677 E32.94244
G0 F6000 X84.939 Y138.679
G1 F1200 X69.54 Y123.28 E33.66676
G0 F6000 X69.54 Y122.714
G1 F1200 X85.507 Y138.682 E34.41782
G0 F6000 X86.075 Y138.684
G1 F1200 X69.54 Y122.149 E35.19558
G0 F6000 X69.54 Y121.583
G1 F1200 X86.643 Y138.686 E36.00005
G0 F6000 X87.211 Y138.689
G1 F1200 X69.54 Y121.017 E36.83127
G0 F6000 X69.54 Y120.452
G1 F1200 X87.78 Y138.691 E37.6892
G0 F6000 X88.348 Y138.694
G1 F1200 X69.54 Y119.886 E38.57387
G0 F6000 X69.54 Y119.32
G1 F1200 X88.916 Y138.696 E39.48525
G0 F6000 X89.484 Y138.698
G1 F1200 X69.54 Y118.755 E40.42333
G0 F6000 X69.54 Y118.189
G1 F1200 X90.052 Y138.701 E41.38816
G0 F6000 X90.62 Y138.703
G1 F1200 X69.54 Y117.623 E42.3797
G0 F6000 X69.54 Y117.057
G1 F1200 X91.188 Y138.706 E43.39797
G0 F6000 X91.757 Y138.708
G1 F1200 X69.54 Y116.492 E44.44297
G0 F6000 X69.54 Y115.926
G1 F1200 X92.324 Y138.711 E45.51468
G0 F6000 X92.893 Y138.713
G1 F1200 X69.54 Y115.36 E46.61314
G0 F6000 X69.54 Y114.795
G1 F1200 X93.461 Y138.715 E47.73828
G0 F6000 X94.029 Y138.718
G1 F1200 X69.54 Y114.229 E48.89017
G0 F6000 X69.54 Y113.663
G1 F1200 X94.597 Y138.72 E50.06878
G0 F6000 X95.115 Y138.673
G1 F1200 X69.54 Y113.098 E51.27175
G0 F6000 X69.54 Y112.532
G1 F1200 X95.548 Y138.54 E52.49508
G0 F6000 X95.909 Y138.336
G1 F1200 X69.54 Y111.966 E53.73542
G0 F6000 X69.54 Y111.401
G1 F1200 X96.219 Y138.08 E54.99032
G0 F6000 X96.475 Y137.77
G1 F1200 X69.541 Y110.836 E56.25721
G0 F6000 X69.541 Y110.27
G1 F1200 X96.68 Y137.409 E57.53375
G0 F6000 X96.816 Y136.98
G1 F1200 X69.541 Y109.704 E58.8167
G0 F6000 X69.541 Y109.139
G1 F1200 X96.86 Y136.458 E60.10171
G0 F6000 X96.86 Y135.893
G1 F1200 X69.541 Y108.573 E61.38673
G0 F6000 X69.541 Y108.007
G1 F1200 X96.86 Y135.327 E62.67176
G0 F6000 X96.86 Y134.761
G1 F1200 X69.541 Y107.442 E63.95676
G0 F6000 X69.541 Y106.876
G1 F1200 X96.86 Y134.196 E65.24179
G0 F6000 X96.86 Y133.63
G1 F1200 X69.541 Y106.31 E66.52681
G0 F6000 X69.541 Y105.744
G1 F1200 X96.86 Y133.064 E67.81184
G0 F6000 X96.86 Y132.499
G1 F1200 X69.541 Y105.179 E69.09686
G0 F6000 X69.541 Y104.613
G1 F1200 X96.86 Y131.933 E70.38189
G0 F6000 X96.86 Y131.367
G1 F1200 X69.541 Y104.047 E71.66691
G0 F6000 X69.541 Y103.482
G1 F1200 X96.86 Y130.802 E72.95194
G0 F6000 X96.86 Y130.236
G1 F1200 X69.541 Y102.916 E74.23696
G0 F6000 X69.541 Y102.35
G1 F1200 X96.86 Y129.67 E75.52199
G0 F6000 X96.86 Y129.104
G1 F1200 X69.541 Y101.785 E76.80699
G0 F6000 X69.541 Y101.219
G1 F1200 X96.86 Y128.539 E78.09202
G0 F6000 X96.86 Y127.973
G1 F1200 X69.541 Y100.653 E79.37704
G0 F6000 X69.541 Y100.088
G1 F1200 X96.86 Y127.407 E80.66204
G0 F6000 X96.86 Y126.842
G1 F1200 X69.541 Y99.522 E81.94707
G0 F6000 X69.541 Y98.956
G1 F1200 X96.86 Y126.276 E83.2321
G0 F6000 X96.86 Y125.71
G1 F1200 X69.542 Y98.392 E84.51705
G0 F6000 X69.617 Y97.901
G1 F1200 X96.86 Y125.145 E85.7985
G0 F6000 X96.86 Y124.579
G1 F1200 X69.768 Y97.486 E87.07285
G0 F6000 X69.988 Y97.14
G1 F1200 X96.86 Y124.013 E88.33685
G0 F6000 X96.86 Y123.448
G1 F1200 X70.258 Y96.845 E89.58815
G0 F6000 X70.583 Y96.604
G1 F1200 X96.86 Y122.882 E90.82416
G0 F6000 X96.86 Y122.316
G1 F1200 X70.967 Y96.423 E92.04209
G0 F6000 X71.41 Y96.3
G1 F1200 X96.86 Y121.751 E93.2392
G0 F6000 X96.86 Y121.185
G1 F1200 X71.953 Y96.278 E94.41075
G0 F6000 X72.519 Y96.278
G1 F1200 X96.86 Y120.619 E95.55568
G0 F6000 X96.86 Y120.054
G1 F1200 X73.085 Y96.278 E96.674
G0 F6000 X73.65 Y96.278
G1 F1200 X96.86 Y119.488 E97.76573
G0 F6000 X96.86 Y118.922
G1 F1200 X74.216 Y96.278 E98.83084
G0 F6000 X74.782 Y96.278
G1 F1200 X96.86 Y118.356 E99.86932
G0 F6000 X96.86 Y117.791
G1 F1200 X75.347 Y96.278 E100.88122
G0 F6000 X75.913 Y96.278
G1 F1200 X96.86 Y117.225 E101.86651
G0 F6000 X96.86 Y116.659
G1 F1200 X76.479 Y96.278 E102.82517
G0 F6000 X77.044 Y96.278
G1 F1200 X96.86 Y116.094 E103.75725
G0 F6000 X96.86 Y115.528
G1 F1200 X77.61 Y96.278 E104.66271
G0 F6000 X78.176 Y96.278
G1 F1200 X96.86 Y114.962 E105.54155
G0 F6000 X96.86 Y114.397
G1 F1200 X78.741 Y96.278 E106.39381
G0 F6000 X79.307 Y96.278
G1 F1200 X96.86 Y113.831 E107.21945
G0 F6000 X96.86 Y113.265
G1 F1200 X79.873 Y96.278 E108.01847
G0 F6000 X80.439 Y96.278
G1 F1200 X96.86 Y112.7 E108.79088
G0 F6000 X96.86 Y112.134
G1 F1200 X81.004 Y96.278 E109.5367
G0 F6000 X81.57 Y96.278
G1 F1200 X96.86 Y111.568 E110.2559
G0 F6000 X96.86 Y111.003
G1 F1200 X82.136 Y96.278 E110.94849
G0 F6000 X82.701 Y96.278
G1 F1200 X96.86 Y110.437 E111.61449
G0 F6000 X96.86 Y109.871
G1 F1200 X83.267 Y96.278 E112.25386
G0 F6000 X83.833 Y96.278
G1 F1200 X96.86 Y109.305 E112.86661
G0 F6000 X96.86 Y108.74
G1 F1200 X84.398 Y96.278 E113.45278
G0 F6000 X84.964 Y96.278
G1 F1200 X96.86 Y108.174 E114.01234
G0 F6000 X96.86 Y107.608
G1 F1200 X85.53 Y96.278 E114.54526
G0 F6000 X86.095 Y96.278
G1 F1200 X96.86 Y107.043 E115.05162
G0 F6000 X96.86 Y106.477
G1 F1200 X86.661 Y96.278 E115.53135
G0 F6000 X87.227 Y96.278
G1 F1200 X96.86 Y105.911 E115.98445
G0 F6000 X96.86 Y105.346
G1 F1200 X87.792 Y96.278 E116.41098
G0 F6000 X88.358 Y96.278
G1 F1200 X96.86 Y104.78 E116.81089
G0 F6000 X96.86 Y104.214
G1 F1200 X88.924 Y96.278 E117.18418
G0 F6000 X89.49 Y96.278
G1 F1200 X96.86 Y103.649 E117.53086
G0 F6000 X96.86 Y103.083
G1 F1200 X90.055 Y96.278 E117.85095
G0 F6000 X90.621 Y96.278
G1 F1200 X96.86 Y102.517 E118.14441
G0 F6000 X96.86 Y101.952
G1 F1200 X91.187 Y96.278 E118.41128
G0 F6000 X91.752 Y96.278
G1 F1200 X96.86 Y101.386 E118.65154
G0 F6000 X96.86 Y100.82
G1 F1200 X92.318 Y96.278 E118.86518
G0 F6000 X92.884 Y96.278
G1 F1200 X96.86 Y100.255 E119.05223
G0 F6000 X96.86 Y99.689
G1 F1200 X93.449 Y96.278 E119.21267
G0 F6000 X94.015 Y96.278
G1 F1200 X96.86 Y99.123 E119.34649
G0 F6000 X96.86 Y98.557
G1 F1200 X94.581 Y96.278 E119.45369
G0 F6000 X95.202 Y96.333
G1 F1200 X96.796 Y97.927 E119.52866
G0 F6000 X97.54 Y97.77
G1 F2700 E114.52866
;MESH:Driver_Case_Bottom.stl
G0 F6000 X98.402 Y136.541
