;FLAVOR:Marlin
;TIME:4154
;Filament used: 3.19185m
;Layer height: 0.2
;MINX:86.71
;MINY:93.147
;MINZ:0.2
;MAXX:157.49
;MAXY:141.865
;MAXZ:19
;Generated with Cura_SteamEngine 5.4.0
M140 S60
M105
M190 S60
M104 S210
M105
M109 S210
M82 ;absolute extrusion mode
; Ender 3 Custom Start G-code
G92 E0 ; Reset Extruder
G28 ; Home all axes
G1 Z2.0 F3000 ; Move Z Axis up little to prevent scratching of Heat Bed
G1 X0.1 Y20 Z0.3 F5000.0 ; Move to start position
G1 X0.1 Y200.0 Z0.3 F1500.0 E15 ; Draw the first line
G1 X0.4 Y200.0 Z0.3 F5000.0 ; Move to side a little
G1 X0.4 Y20 Z0.3 F1500.0 E30 ; Draw the second line
G92 E0 ; Reset Extruder
G1 Z2.0 F3000 ; Move Z Axis up little to prevent scratching of Heat Bed
G1 X5 Y20 Z0.3 F5000.0 ; Move over to prevent blob squish
G92 E0
G92 E0
G1 F2700 E-5
;LAYER_COUNT:95
;LAYER:0
M107
G0 F6000 X127.419 Y97.208 Z0.2
;TYPE:SUPPORT-INTERFACE
G1 F2700 E0
G1 F1200 X127.534 Y97.062 E0.00618
G1 X127.689 Y96.902 E0.01359
G1 X127.842 Y96.767 E0.02038
G1 X127.972 Y96.673 E0.02571
G1 X128.153 Y96.564 E0.03274
G1 X128.324 Y96.482 E0.03905
G1 X128.524 Y96.407 E0.04615
G1 X128.7 Y96.358 E0.05223
G1 X128.892 Y96.323 E0.05872
G1 X129.097 Y96.304 E0.06557
G1 X129.286 Y96.303 E0.07185
G1 X129.509 Y96.323 E0.0793
G1 X129.682 Y96.355 E0.08515
G1 X129.865 Y96.405 E0.09146
G1 X130.072 Y96.482 E0.09881
G1 X130.223 Y96.555 E0.10439
G1 X130.402 Y96.661 E0.11131
G1 X130.564 Y96.779 E0.11797
G1 X130.714 Y96.91 E0.12459
G1 X130.86 Y97.06 E0.13156
G1 X130.976 Y97.206 E0.13776
G1 X131.07 Y97.348 E0.14342
G1 X131.191 Y97.57 E0.15183
G1 X131.25 Y97.71 E0.15689
G1 X131.317 Y97.915 E0.16406
G1 X131.361 Y98.1 E0.17038
G1 X131.389 Y98.311 E0.17746
G1 X131.397 Y98.494 E0.18356
G1 X131.389 Y98.689 E0.19005
G1 X131.361 Y98.897 E0.19703
G1 X131.317 Y99.085 E0.20345
G1 X131.258 Y99.269 E0.20988
G1 X131.179 Y99.451 E0.21647
G1 X131.09 Y99.618 E0.22277
G1 X130.98 Y99.788 E0.2295
G1 X130.864 Y99.935 E0.23573
G1 X130.711 Y100.094 E0.24307
G1 X130.577 Y100.212 E0.24901
G1 X130.4 Y100.341 E0.25629
G1 X130.244 Y100.434 E0.26233
G1 X130.065 Y100.521 E0.26895
G1 X129.874 Y100.593 E0.27574
G1 X129.704 Y100.64 E0.28161
G1 X129.496 Y100.678 E0.28864
G1 X129.298 Y100.696 E0.29525
G1 X129.109 Y100.697 E0.30154
G1 X128.883 Y100.677 E0.30909
G1 X128.716 Y100.647 E0.31473
G1 X128.529 Y100.595 E0.32119
G1 X128.32 Y100.517 E0.32861
G1 X128.148 Y100.434 E0.33496
G1 X127.995 Y100.342 E0.3409
G1 X127.83 Y100.222 E0.34768
G1 X127.685 Y100.097 E0.35405
G1 X127.541 Y99.946 E0.36099
G1 X127.42 Y99.794 E0.36745
G1 X127.325 Y99.65 E0.37319
G1 X127.205 Y99.43 E0.38152
G1 X127.145 Y99.287 E0.38668
G1 X127.078 Y99.081 E0.39389
G1 X127.035 Y98.9 E0.40007
G1 X127.007 Y98.689 E0.40715
G1 X126.999 Y98.502 E0.41338
G1 X127.007 Y98.311 E0.41974
G1 X127.034 Y98.107 E0.42658
G1 X127.035 Y98.106 E0.42663
G1 X127.035 Y98.103 E0.42673
G1 X127.079 Y97.915 E0.43315
G1 X127.138 Y97.731 E0.43958
G1 X127.217 Y97.549 E0.44618
G1 X127.306 Y97.382 E0.45247
G1 X127.419 Y97.208 E0.45937
G0 F6000 X127.918 Y97.687
G1 F1200 X127.744 Y98.148 E0.47576
G1 X127.701 Y98.53 E0.48854
G1 X127.756 Y98.902 E0.50105
G1 X127.898 Y99.244 E0.51337
G1 X128.128 Y99.548 E0.52605
G1 X128.413 Y99.775 E0.53817
G1 X128.758 Y99.932 E0.55077
G1 X129.134 Y99.996 E0.56346
G1 X129.581 Y99.966 E0.57836
G1 X130.089 Y99.725 E0.59706
G1 X130.394 Y99.399 E0.61191
G1 X130.601 Y99.022 E0.62621
G1 X130.711 Y98.591 E0.64101
G1 X130.64 Y98.1 E0.65751
G1 X130.494 Y97.751 E0.67009
G1 X130.301 Y97.489 E0.68091
G1 X129.981 Y97.224 E0.69473
G1 X129.638 Y97.068 E0.70727
G1 X129.261 Y97.004 E0.71998
G1 X128.816 Y97.033 E0.73482
G1 X128.304 Y97.279 E0.75371
G1 X127.918 Y97.687 E0.77239
G1 F2700 E-4.22761
G0 F6000 X149.971 Y98.502
G1 F2700 E0.77239
G1 F1200 X149.979 Y98.311 E0.77875
G1 X150.006 Y98.107 E0.78559
G1 X150.007 Y98.106 E0.78564
G1 X150.007 Y98.103 E0.78574
G1 X150.051 Y97.915 E0.79216
G1 X150.11 Y97.731 E0.79859
G1 X150.189 Y97.549 E0.80519
G1 X150.278 Y97.382 E0.81148
G1 X150.391 Y97.208 E0.81838
G1 X150.506 Y97.062 E0.82456
G1 X150.661 Y96.902 E0.83197
G1 X150.814 Y96.767 E0.83876
G1 X150.944 Y96.673 E0.84409
G1 X151.125 Y96.564 E0.85112
G1 X151.296 Y96.482 E0.85743
G1 X151.496 Y96.407 E0.86453
G1 X151.672 Y96.358 E0.87061
G1 X151.864 Y96.323 E0.8771
G1 X152.069 Y96.304 E0.88395
G1 X152.258 Y96.303 E0.89024
G1 X152.481 Y96.323 E0.89768
G1 X152.654 Y96.355 E0.90353
G1 X152.837 Y96.405 E0.90984
G1 X153.044 Y96.482 E0.91719
G1 X153.195 Y96.555 E0.92277
G1 X153.374 Y96.661 E0.92969
G1 X153.536 Y96.779 E0.93635
G1 X153.686 Y96.91 E0.94298
G1 X153.832 Y97.06 E0.94994
G1 X153.948 Y97.206 E0.95614
G1 X154.042 Y97.348 E0.9618
G1 X154.163 Y97.57 E0.97021
G1 X154.222 Y97.71 E0.97527
G1 X154.289 Y97.915 E0.98244
G1 X154.333 Y98.1 E0.98877
G1 X154.361 Y98.311 E0.99584
G1 X154.369 Y98.494 E1.00194
G1 X154.361 Y98.689 E1.00843
G1 X154.333 Y98.897 E1.01541
G1 X154.289 Y99.085 E1.02183
G1 X154.23 Y99.269 E1.02826
G1 X154.151 Y99.451 E1.03486
G1 X154.062 Y99.618 E1.04115
G1 X153.952 Y99.788 E1.04789
G1 X153.836 Y99.935 E1.05411
G1 X153.683 Y100.094 E1.06145
G1 X153.549 Y100.212 E1.06739
G1 X153.372 Y100.341 E1.07468
G1 X153.216 Y100.434 E1.08072
G1 X153.037 Y100.521 E1.08734
G1 X152.846 Y100.593 E1.09412
G1 X152.676 Y100.64 E1.09999
G1 X152.468 Y100.678 E1.10702
G1 X152.27 Y100.696 E1.11364
G1 X152.081 Y100.697 E1.11992
G1 X151.855 Y100.677 E1.12747
G1 X151.688 Y100.647 E1.13311
G1 X151.501 Y100.595 E1.13957
G1 X151.292 Y100.517 E1.14699
G1 X151.12 Y100.434 E1.15334
G1 X150.967 Y100.342 E1.15928
G1 X150.802 Y100.222 E1.16606
G1 X150.657 Y100.097 E1.17243
G1 X150.513 Y99.946 E1.17937
G1 X150.392 Y99.794 E1.18583
G1 X150.297 Y99.65 E1.19157
G1 X150.177 Y99.43 E1.19991
G1 X150.117 Y99.287 E1.20506
G1 X150.05 Y99.081 E1.21227
G1 X150.007 Y98.9 E1.21846
G1 X149.979 Y98.689 E1.22554
G1 X149.971 Y98.502 E1.23176
G0 F6000 X150.673 Y98.53
G1 F1200 X150.728 Y98.902 E1.24427
G1 X150.87 Y99.244 E1.25658
G1 X151.1 Y99.548 E1.26926
G1 X151.385 Y99.775 E1.28138
G1 X151.73 Y99.932 E1.29399
G1 X152.106 Y99.996 E1.30667
G1 X152.553 Y99.966 E1.32157
G1 X153.061 Y99.725 E1.34028
G1 X153.366 Y99.399 E1.35512
G1 X153.573 Y99.022 E1.36943
G1 X153.683 Y98.591 E1.38422
G1 X153.612 Y98.1 E1.40072
G1 X153.466 Y97.751 E1.41331
G1 X153.273 Y97.489 E1.42413
G1 X152.953 Y97.224 E1.43795
G1 X152.61 Y97.068 E1.45048
G1 X152.233 Y97.004 E1.4632
G1 X151.788 Y97.033 E1.47803
G1 X151.276 Y97.279 E1.49693
G1 X150.89 Y97.687 E1.51561
G1 X150.716 Y98.148 E1.532
G1 X150.673 Y98.53 E1.54478
G1 F2700 E-3.45522
G0 F6000 X152.069 Y134.304
G1 F2700 E1.54478
G1 F1200 X152.258 Y134.303 E1.55107
G1 X152.481 Y134.323 E1.55851
G1 X152.654 Y134.355 E1.56437
G1 X152.837 Y134.405 E1.57067
G1 X153.044 Y134.482 E1.57802
G1 X153.195 Y134.555 E1.5836
G1 X153.374 Y134.661 E1.59052
G1 X153.536 Y134.779 E1.59718
G1 X153.686 Y134.91 E1.60381
G1 X153.832 Y135.06 E1.61077
G1 X153.948 Y135.206 E1.61697
G1 X154.042 Y135.348 E1.62264
G1 X154.163 Y135.57 E1.63105
G1 X154.222 Y135.71 E1.6361
G1 X154.289 Y135.915 E1.64327
G1 X154.333 Y136.1 E1.6496
G1 X154.361 Y136.311 E1.65668
G1 X154.369 Y136.494 E1.66277
G1 X154.361 Y136.689 E1.66926
G1 X154.333 Y136.897 E1.67624
G1 X154.289 Y137.085 E1.68266
G1 X154.23 Y137.269 E1.68909
G1 X154.151 Y137.451 E1.69569
G1 X154.062 Y137.618 E1.70198
G1 X153.952 Y137.788 E1.70872
G1 X153.836 Y137.935 E1.71494
G1 X153.683 Y138.094 E1.72228
G1 X153.549 Y138.212 E1.72822
G1 X153.372 Y138.341 E1.73551
G1 X153.216 Y138.434 E1.74155
G1 X153.037 Y138.521 E1.74817
G1 X152.846 Y138.593 E1.75496
G1 X152.676 Y138.64 E1.76082
G1 X152.468 Y138.678 E1.76786
G1 X152.27 Y138.696 E1.77447
G1 X152.081 Y138.697 E1.78075
G1 X151.855 Y138.677 E1.7883
G1 X151.688 Y138.647 E1.79394
G1 X151.501 Y138.595 E1.8004
G1 X151.292 Y138.517 E1.80782
G1 X151.12 Y138.434 E1.81417
G1 X150.967 Y138.342 E1.82011
G1 X150.802 Y138.222 E1.82689
G1 X150.657 Y138.097 E1.83326
G1 X150.513 Y137.946 E1.8402
G1 X150.392 Y137.794 E1.84666
G1 X150.297 Y137.65 E1.8524
G1 X150.177 Y137.43 E1.86074
G1 X150.117 Y137.287 E1.86589
G1 X150.05 Y137.081 E1.8731
G1 X150.007 Y136.9 E1.87929
G1 X149.979 Y136.689 E1.88637
G1 X149.971 Y136.502 E1.89259
G1 X149.979 Y136.311 E1.89895
G1 X150.006 Y136.107 E1.90579
G1 X150.007 Y136.106 E1.90584
G1 X150.007 Y136.103 E1.90594
G1 X150.051 Y135.915 E1.91236
G1 X150.11 Y135.731 E1.91879
G1 X150.189 Y135.549 E1.92539
G1 X150.278 Y135.382 E1.93168
G1 X150.391 Y135.208 E1.93858
G1 X150.506 Y135.062 E1.94476
G1 X150.661 Y134.902 E1.95217
G1 X150.814 Y134.767 E1.95896
G1 X150.944 Y134.673 E1.9643
G1 X151.125 Y134.564 E1.97132
G1 X151.296 Y134.482 E1.97763
G1 X151.496 Y134.407 E1.98474
G1 X151.672 Y134.358 E1.99081
G1 X151.864 Y134.323 E1.9973
G1 X152.069 Y134.304 E2.00415
G0 F6000 X152.233 Y135.004
G1 F1200 X151.788 Y135.033 E2.01898
G1 X151.276 Y135.279 E2.03788
G1 X150.89 Y135.687 E2.05656
G1 X150.716 Y136.148 E2.07295
G1 X150.673 Y136.53 E2.08573
G1 X150.728 Y136.902 E2.09824
G1 X150.87 Y137.244 E2.11055
G1 X151.1 Y137.548 E2.12323
G1 X151.385 Y137.775 E2.13535
G1 X151.73 Y137.932 E2.14796
G1 X152.106 Y137.996 E2.16064
G1 X152.553 Y137.966 E2.17555
G1 X153.061 Y137.725 E2.19425
G1 X153.366 Y137.399 E2.20909
G1 X153.573 Y137.022 E2.2234
G1 X153.683 Y136.591 E2.23819
G1 X153.612 Y136.1 E2.25469
G1 X153.466 Y135.751 E2.26728
G1 X153.273 Y135.489 E2.2781
G1 X152.953 Y135.224 E2.29192
G1 X152.61 Y135.068 E2.30445
G1 X152.233 Y135.004 E2.31717
G1 F2700 E-2.68283
G0 F6000 X131.389 Y136.311
G1 F2700 E2.31717
G1 F1200 X131.397 Y136.494 E2.32326
G1 X131.389 Y136.689 E2.32975
G1 X131.361 Y136.897 E2.33674
G1 X131.317 Y137.085 E2.34316
G1 X131.258 Y137.269 E2.34958
G1 X131.179 Y137.451 E2.35618
G1 X131.09 Y137.618 E2.36248
G1 X130.98 Y137.788 E2.36921
G1 X130.864 Y137.935 E2.37544
G1 X130.711 Y138.094 E2.38278
G1 X130.577 Y138.212 E2.38872
G1 X130.4 Y138.341 E2.396
G1 X130.244 Y138.434 E2.40204
G1 X130.065 Y138.521 E2.40866
G1 X129.874 Y138.593 E2.41545
G1 X129.704 Y138.64 E2.42132
G1 X129.496 Y138.678 E2.42835
G1 X129.298 Y138.696 E2.43496
G1 X129.109 Y138.697 E2.44125
G1 X128.883 Y138.677 E2.4488
G1 X128.716 Y138.647 E2.45444
G1 X128.529 Y138.595 E2.46089
G1 X128.32 Y138.517 E2.46831
G1 X128.148 Y138.434 E2.47467
G1 X127.995 Y138.342 E2.4806
G1 X127.83 Y138.222 E2.48739
G1 X127.685 Y138.097 E2.49376
G1 X127.541 Y137.946 E2.5007
G1 X127.42 Y137.794 E2.50716
G1 X127.325 Y137.65 E2.5129
G1 X127.205 Y137.43 E2.52123
G1 X127.145 Y137.287 E2.52639
G1 X127.078 Y137.081 E2.53359
G1 X127.035 Y136.9 E2.53978
G1 X127.007 Y136.689 E2.54686
G1 X126.999 Y136.502 E2.55309
G1 X127.007 Y136.311 E2.55944
G1 X127.034 Y136.107 E2.56629
G1 X127.035 Y136.106 E2.56634
G1 X127.035 Y136.103 E2.56644
G1 X127.079 Y135.915 E2.57286
G1 X127.138 Y135.731 E2.57928
G1 X127.217 Y135.549 E2.58588
G1 X127.306 Y135.382 E2.59218
G1 X127.419 Y135.208 E2.59908
G1 X127.534 Y135.062 E2.60526
G1 X127.689 Y134.902 E2.61267
G1 X127.842 Y134.767 E2.61946
G1 X127.972 Y134.673 E2.62479
G1 X128.153 Y134.564 E2.63182
G1 X128.324 Y134.482 E2.63813
G1 X128.524 Y134.407 E2.64523
G1 X128.7 Y134.358 E2.65131
G1 X128.892 Y134.323 E2.6578
G1 X129.097 Y134.304 E2.66465
G1 X129.286 Y134.303 E2.67093
G1 X129.509 Y134.323 E2.67838
G1 X129.682 Y134.355 E2.68423
G1 X129.865 Y134.405 E2.69054
G1 X130.072 Y134.482 E2.69789
G1 X130.223 Y134.555 E2.70346
G1 X130.402 Y134.661 E2.71038
G1 X130.564 Y134.779 E2.71705
G1 X130.714 Y134.91 E2.72367
G1 X130.86 Y135.06 E2.73064
G1 X130.976 Y135.206 E2.73684
G1 X131.07 Y135.348 E2.7425
G1 X131.191 Y135.57 E2.75091
G1 X131.25 Y135.71 E2.75596
G1 X131.317 Y135.915 E2.76314
G1 X131.361 Y136.1 E2.76946
G1 X131.389 Y136.311 E2.77654
G0 F6000 X130.711 Y136.591
G1 F1200 X130.64 Y136.1 E2.79304
G1 X130.494 Y135.751 E2.80562
G1 X130.301 Y135.489 E2.81645
G1 X129.981 Y135.224 E2.83027
G1 X129.638 Y135.068 E2.8428
G1 X129.261 Y135.004 E2.85552
G1 X128.816 Y135.033 E2.87035
G1 X128.304 Y135.279 E2.88924
G1 X127.918 Y135.687 E2.90792
G1 X127.744 Y136.148 E2.92431
G1 X127.701 Y136.53 E2.9371
G1 X127.756 Y136.902 E2.94961
G1 X127.898 Y137.244 E2.96192
G1 X128.128 Y137.548 E2.9746
G1 X128.413 Y137.775 E2.98672
G1 X128.758 Y137.932 E2.99933
G1 X129.134 Y137.996 E3.01201
G1 X129.581 Y137.966 E3.02691
G1 X130.089 Y137.725 E3.04561
G1 X130.394 Y137.399 E3.06046
G1 X130.601 Y137.022 E3.07477
G1 X130.711 Y136.591 E3.08956
G0 F6000 X131.129 Y137.005
G1 F1200 X129.703 Y138.431 E3.15664
G0 F6000 X130.617 Y137.405
G1 F1200 X130.843 Y137.631 E3.16727
G1 F2700 E-1.83273
G0 F6000 X129.689 Y136.889
G0 X129.518 Y135.962
G0 X129.813 Y134.927
G1 F2700 E3.16727
G1 F1200 X130.048 Y134.691 E3.17834
G1 F2700 E-1.82166
G0 F6000 X128.279 Y135.068
G1 F2700 E3.17834
G1 F1200 X128.064 Y134.853 E3.18846
G1 F2700 E-1.81154
G0 F6000 X127.627 Y137.113
G1 F2700 E3.18846
G1 F1200 X127.39 Y137.349 E3.19958
G1 F2700 E-1.80042
G0 F6000 X150.174 Y136.598
G1 F2700 E3.19958
G1 F1200 X150.535 Y136.958 E3.21654
G0 F6000 X150.893 Y137.606
G1 F1200 X150.674 Y137.825 E3.22684
G0 F6000 X151.707 Y138.131
G1 F1200 X152.071 Y138.495 E3.24396
G1 F2700 E-1.75604
G0 F6000 X153.821 Y136.851
G1 F2700 E3.24396
G1 F1200 X154.072 Y137.102 E3.25577
G1 F2700 E-1.74423
G0 F6000 X153.27 Y135.229
G1 F2700 E3.25577
G1 F1200 X153.492 Y135.007 E3.26621
G1 F2700 E-1.73379
G0 F6000 X151.801 Y134.831
G1 F2700 E3.26621
G1 F1200 X151.566 Y134.595 E3.27729
G1 F2700 E-1.72271
G0 F6000 X151.102 Y100.19
G1 F2700 E3.27729
G1 F1200 X150.484 Y99.572 E3.30635
G0 F6000 X151.025 Y100.138
G1 F1200 X151.245 Y99.919 E3.31668
G1 F2700 E-1.68332
G0 F6000 X153.632 Y99.326
G1 F2700 E3.31668
G1 F1200 X153.862 Y99.557 E3.32752
G1 F2700 E-1.67248
G0 F6000 X153.586 Y97.577
G1 F2700 E3.32752
G1 F1200 X153.807 Y97.356 E3.33792
G1 F2700 E-1.66208
G0 F6000 X151.334 Y97.028
G1 F2700 E3.33792
G1 F1200 X151.11 Y96.805 E3.34843
G1 F2700 E-1.65157
G0 F6000 X130.455 Y96.949
G1 F2700 E3.34843
G1 F1200 X130.232 Y97.173 E3.35894
G1 F2700 E-1.64106
G0 F6000 X127.93 Y97.383
G1 F2700 E3.35894
G1 F1200 X127.711 Y97.164 E3.36924
G1 F2700 E-1.63076
G0 F6000 X127.867 Y99.538
G1 F2700 E3.36924
G1 F1200 X127.646 Y99.758 E3.37961
G1 F2700 E-1.62039
G0 F6000 X130.317 Y99.77
G1 F2700 E3.37961
G1 F1200 X130.531 Y99.984 E3.38968
G1 F2700 E-1.61032
;MESH:Driver_Case_Top.stl
G0 F6000 X117.897 Y99.984
G0 X116.724 Y136.995
G0 X116.434 Y137.807
G0 X116.155 Y138.205
G0 X115.002 Y139.166
;TYPE:WALL-INNER
G1 F2700 E3.38968
G1 F1200 X115.425 Y138.984 E3.405
G1 X115.756 Y138.784 E3.41786
G1 X116.034 Y138.562 E3.42969
G1 X116.364 Y138.209 E3.44576
G1 X116.613 Y137.8 E3.46169
G1 X116.755 Y137.476 E3.47346
G1 X116.882 Y137.026 E3.48901
G1 X116.917 Y136.521 E3.50584
G1 X116.917 Y98.511 E4.77006
G1 X116.904 Y98.124 E4.78294
G1 X116.795 Y97.605 E4.80058
G1 X116.61 Y97.184 E4.81587
G1 X116.468 Y96.933 E4.82547
G1 X116.307 Y96.72 E4.83435
G1 X116.052 Y96.446 E4.8468
G1 X115.761 Y96.208 E4.8593
G1 X115.431 Y96.007 E4.87215
G1 X115.101 Y95.864 E4.88411
G1 X114.758 Y95.767 E4.89597
G1 X114.411 Y95.718 E4.90762
G1 X91.257 Y95.717 E5.67773
G1 X90.845 Y95.742 E5.69146
G1 X90.489 Y95.814 E5.70354
G1 X90.19 Y95.913 E5.71401
G1 X89.94 Y96.032 E5.72322
G1 X89.628 Y96.223 E5.73539
G1 X89.342 Y96.457 E5.74768
G1 X89.077 Y96.744 E5.76067
G1 X88.868 Y97.042 E5.77278
G1 X88.696 Y97.38 E5.78539
G1 X88.577 Y97.723 E5.79747
G1 X88.505 Y98.026 E5.80783
G1 X88.478 Y98.378 E5.81957
G1 X88.477 Y136.468 E7.08645
G1 X88.506 Y136.848 E7.09912
G1 X88.61 Y137.311 E7.11491
G1 X88.799 Y137.735 E7.13035
G1 X89.02 Y138.105 E7.14468
G1 X89.377 Y138.477 E7.16183
G1 X89.676 Y138.712 E7.17448
G1 X90.004 Y138.903 E7.1871
G1 X90.44 Y139.081 E7.20277
G1 X90.87 Y139.16 E7.21731
G1 X91.175 Y139.183 E7.22748
G1 X114.146 Y139.283 E7.99151
G1 X114.537 Y139.26 E8.00453
G1 X115.002 Y139.166 E8.02031
G0 F6000 X114.516 Y139.671
G1 F1200 X115.119 Y139.55 E8.04077
G1 X115.609 Y139.34 E8.0585
G1 X115.985 Y139.112 E8.07312
G1 X116.306 Y138.855 E8.0868
G1 X116.681 Y138.454 E8.10506
G1 X116.968 Y137.986 E8.12332
G1 X117.178 Y137.505 E8.14078
G1 X117.286 Y136.981 E8.15857
G1 X117.317 Y136.529 E8.17364
G1 X117.317 Y98.452 E9.44009
G1 X117.285 Y97.995 E9.45532
G1 X117.203 Y97.6 E9.46874
